X:8
T:Cuckoo's Nest
S:American Veteran Fifer #8
C:Donated by Major J.N. Bogart, Plainfield N.J. Co.I.81st N.J. Vol. Inf.
M:C
L:1/8
Q:1/4=180
K:D 
%%MIDI program 72
%%MIDI transpose 8
%%MIDI ratio 3 1
|: c/d/ | ecAc ecAc | edcB A2 Bc | dBGB dBGB | dcBA G3G |
ABcd e2 a2 | gedc d2 ed | cBcA GABd | c2 A2 A2 z:|
|: c/d/ | e2 a2 a2 ba | gfed e2 ef | g2 g2 g2 ag | fedc d2 ed |
cABF A2 a2 | agec d2 ed | cBcA GABe | c2 A2 A2 z:|



